X:604
T:Reel 604
M:4/4
K:Amin
L:1/8
A,G,E,G, C,G,E,G,|C,G,E,G, A,D,D,A,|A,G,E,G, C,G,E,G,|G,A,CD ECCA,|A,G,E,G, C,G,E,G,|C,G,E,G, A,D,D,A,|A,G,E,G, C,G,E,G,|G,A,CD ECCF|EG (3G^FG AFGE|CEGE FEDF|EG (3G^FG AFGE|G,A,CD ECCA,|CEGF ECGC|AGGE FDDF|EGBG ^FAGE|DCDE CDEF|
